X:177
T:Nabob, The
M:6/8
L:1/8
B:Thompson's Compleat Collection of 200 Favourite Country Dances, vol. 3 (London, 1773)
Z:Transcribed and edited by Flynn Titford-Mock, 2007
Z:abc's:AK/Fiddler's Companion
K:D
D2D D2D | A2A A2A | ABc dcB | ABG FGE | D2D D2D | A2A A2A | B2B "tr"cBc | d3 D3 :|
|: BGd BGd | AFd AFd | BGd BGd | AFd AFd | BGE BGE | AFD AFD | E2E "tr"cBc | d3 D3 :|

